apps/32/yast-disk.svg

<svg width="32" height="32" version="1.1" viewBox="0 0 32 32" xmlns="http://www.w3.org/2000/svg" xmlns:xlink="http://www.w3.org/1999/xlink">
<defs>
<linearGradient id="linearGradient3403" x1="6.9492" x2="11.215" y1="4.5549" y2="59.052" gradientUnits="userSpaceOnUse">
<stop style="stop-color:#32373c" offset="0"/>
<stop style="stop-color:#1a1a1a" offset=".36805"/>
<stop style="stop-color:#31363b" offset="1"/>
</linearGradient>
<linearGradient id="linearGradient20558" x1="25.802" x2="25.111" y1="20.374" y2="58.913" gradientUnits="userSpaceOnUse">
<stop style="stop-color:#3d3d3d" offset="0"/>
<stop offset=".61772"/>
<stop style="stop-color:#3d3d3d" offset="1"/>
</linearGradient>
<linearGradient id="linearGradient4557" x1="43.5" x2="44.142" y1="64.012" y2=".30621" gradientTransform="translate(.36068 -.13017)" gradientUnits="userSpaceOnUse">
<stop style="stop-color:#141618" offset="0"/>
<stop style="stop-color:#686868" offset=".51821"/>
<stop style="stop-color:#31363b" offset="1"/>
</linearGradient>
<linearGradient id="linearGradient919" x1="7.4006" x2="33.063" y1="41.743" y2="7.1074" gradientTransform="matrix(.65672 0 0 .65672 .25995 .21718)" gradientUnits="userSpaceOnUse">
<stop style="stop-opacity:.99608" offset="0"/>
<stop style="stop-color:#353a3f;stop-opacity:.99608" offset="1"/>
</linearGradient>
<linearGradient id="g" x1="388.42" x2="0" y1="543.8" y2="503.8" gradientTransform="matrix(1.125,0,0,1,-435.64,-499.8)" gradientUnits="userSpaceOnUse">
<stop stop-color="#7f8c8d" offset="0"/>
<stop stop-color="#afb0b3" offset="1"/>
</linearGradient>
<linearGradient id="h" x2="0" y1="38" y2="5" gradientTransform="translate(40)" gradientUnits="userSpaceOnUse">
<stop stop-color="#eef1f2" offset="0"/>
<stop stop-color="#f9fafb" offset="1"/>
</linearGradient>
<linearGradient id="i" x1="10" x2="24" y1="9" y2="23" gradientTransform="matrix(1.4286 0 0 1.4286 1.143 1.143)" gradientUnits="userSpaceOnUse">
<stop stop-color="#292c2f" offset="0"/>
<stop stop-opacity="0" offset="1"/>
</linearGradient>
<linearGradient id="j" x1="-17" x2="-17" y1="32" y2="10" gradientTransform="translate(40)" gradientUnits="userSpaceOnUse">
<stop stop-color="#173f4f" offset="0"/>
<stop stop-color="#2f5361" offset="1"/>
</linearGradient>
<linearGradient id="k" x1="-17" x2="-17" y1="31.949" y2="10" gradientTransform="translate(40)" gradientUnits="userSpaceOnUse">
<stop stop-color="#35b9ab" offset="0"/>
<stop stop-color="#4ac0b4" offset="1"/>
</linearGradient>
<linearGradient id="l" x1="-17" x2="-17" y1="32" y2="10" gradientTransform="translate(40)" gradientUnits="userSpaceOnUse">
<stop stop-color="#73ba25" offset="0"/>
<stop stop-color="#81c13b" offset="1"/>
</linearGradient>
</defs>
<rect x="2.3371" y="2.1995" width="27.638" height="28.05" ry="0" style="fill-rule:evenodd;fill:url(#linearGradient919)"/>
<g transform="matrix(.66758 0 0 .66758 1.7249 -.53275)">
<path d="m16.838 4a10.809 10.809 0 0 0-7.67 3.168 10.809 10.809 0 0 0-3.168 7.67v29.162h36v-14.227h-4e-3v-14.935a10.81 10.81 0 0 0-3.168-7.67 10.809 10.809 0 0 0-7.67-3.168z" style="fill:url(#g)"/>
<path d="m6 39.9h36v4.1h-36z" style="fill:#626b6c"/>
<path d="m6 43h36v1h-36z" style="fill:#737b81"/>
<g style="fill:#292c2e;stroke-width:.1">
<path d="m16 41h12v3h-12zm16 0h6v3h-6z"/>
</g>
<path d="m17.367 6.025a9.34 9.34 0 0 0-9.367 9.367v4.659c1.698 0.243 3 1.684 3 3.451a3.48 3.48 0 0 1-3 3.45v5.048l1.459 1.486 0.012 0.014c0.02 0.024 0.048 0.044 0.07 0.068l4.354 4.432h10.062l0.043 2e-3h4.088v-2e-3h5.912l3.719-3.719c0.292-0.245 0.567-0.502 0.81-0.781 0.037-0.043 0.068-0.09 0.104-0.133l1.367-1.367v-5.049a3.48 3.48 0 0 1-3-3.449 3.483 3.483 0 0 1 3-3.451v-4.658a9.345 9.345 0 0 0-5.715-8.633 9.376 9.376 0 0 0-3.547-0.729c-9e-3 -1e-3 -0.017-6e-3 -0.027-6e-3z" style="fill:url(#h)"/>
<path d="m18 42v1h8v-1zm15 0v1h3v1h1v-2z" style="fill:#f6b44d"/>
<g style="fill:#202324">
<path d="m16 43h12v1h-12zm16 0h6v1h-6z"/>
</g>
<path d="m24 10a11 11 0 0 0-8.43 3.936l-0.142 0.064-0.065 0.209a11 11 0 0 0-2.363 6.791 11 11 0 0 0 2.482 6.953l0.43 1.277 10.483 10.485h14.748v-17.606l-9.143-9.109-0.771-0.281a11 11 0 0 0-7.229-2.719z" style="fill:url(#i);opacity:.2"/>
<path d="m23 31.95v-10.306l-0.121-0.21-8.828-5.095a11 11 0 0 0-1.051 4.661 11 11 0 0 0 10 10.95z" style="fill:url(#j);paint-order:stroke fill markers"/>
<path d="m33.95 16.338-8.829 5.098-0.121 0.209v10.3a11 11 0 0 0 10-10.945 11 11 0 0 0-1.05-4.662z" style="fill:url(#k);paint-order:stroke fill markers"/>
<path d="m24 10a11 11 0 0 0-8.943 4.611l8.943 5.162 8.94-5.16a11 11 0 0 0-8.94-4.613z" style="fill:url(#l);paint-order:stroke fill markers"/>
</g>
<path transform="matrix(.49378 0 0 .49378 .32543 .23352)" d="m4.7043 3.9815-0.012938 56.82h53.904l1.0222-2.8664s-23.875 0.76639-32.844-4.1404c-10.516-5.7529-15.372-49.697-15.372-49.697z" style="fill:url(#linearGradient3403);mix-blend-mode:normal;stroke-linejoin:round;stroke-width:1.1624;stroke:url(#linearGradient20558)"/>
<rect transform="matrix(.46256 0 0 .46162 1.1551 1.2313)" x="1.0324" y=".59551" width="62.567" height="62.867" rx="5.803" ry="6.2447" style="fill:none;stroke-linejoin:round;stroke-miterlimit:7.8;stroke-opacity:.99515;stroke-width:3.7137;stroke:url(#linearGradient4557)"/>
</svg>

<?xml version="1.0" encoding="UTF-8" standalone="no"?>
<!-- Created with Inkscape (http://www.inkscape.org/) -->

<svg
   width="32"
   height="32"
   version="1.1"
   viewBox="0 0 32 32"
   id="svg22"
   sodipodi:docname="yast-disk.svg"
   inkscape:version="1.1.2 (0a00cf5339, 2022-02-04)"
   xmlns:inkscape="http://www.inkscape.org/namespaces/inkscape"
   xmlns:sodipodi="http://sodipodi.sourceforge.net/DTD/sodipodi-0.dtd"
   xmlns:xlink="http://www.w3.org/1999/xlink"
   xmlns="http://www.w3.org/2000/svg"
   xmlns:svg="http://www.w3.org/2000/svg">
  <sodipodi:namedview
     id="namedview24"
     pagecolor="#ffffff"
     bordercolor="#666666"
     borderopacity="1.0"
     inkscape:showpageshadow="2"
     inkscape:pageopacity="0.0"
     inkscape:pagecheckerboard="0"
     inkscape:deskcolor="#d1d1d1"
     showgrid="false"
     inkscape:zoom="19.6"
     inkscape:cx="31.581633"
     inkscape:cy="32.372449"
     inkscape:window-width="3440"
     inkscape:window-height="1359"
     inkscape:window-x="0"
     inkscape:window-y="0"
     inkscape:window-maximized="1"
     inkscape:current-layer="svg22"
     inkscape:pageshadow="2" />
  <defs
     id="defs12">
    <linearGradient
       inkscape:collect="always"
       id="linearGradient917">
      <stop
         style="stop-color:#000000;stop-opacity:0.99607843"
         offset="0"
         id="stop913" />
      <stop
         style="stop-color:#353a3f;stop-opacity:0.99607843"
         offset="1"
         id="stop915" />
    </linearGradient>
    <linearGradient
       id="linearGradient1005-3-3"
       x1="5.2535"
       x2="9.3823996"
       y1="15.383"
       y2="2.9421"
       gradientTransform="matrix(0.99999,0,0,0.99999,1.632,-0.61743)"
       gradientUnits="userSpaceOnUse">
      <stop
         stop-color="#fa8200"
         offset="0"
         id="stop2" />
      <stop
         stop-color="#ff9600"
         offset=".36953"
         id="stop4" />
      <stop
         stop-color="#ffb400"
         offset="1"
         id="stop6" />
    </linearGradient>
    <filter
       id="filter4014"
       x="-0.062499933"
       y="-0.057692993"
       width="1.1249999"
       height="1.115386"
       color-interpolation-filters="sRGB">
      <feGaussianBlur
         stdDeviation="1.093751"
         id="feGaussianBlur9" />
    </filter>
    <linearGradient
       inkscape:collect="always"
       xlink:href="#linearGradient3487"
       id="linearGradient3403"
       gradientUnits="userSpaceOnUse"
       x1="6.9491749"
       y1="4.5549412"
       x2="11.215498"
       y2="59.052471" />
    <linearGradient
       id="linearGradient3487">
      <stop
         style="stop-color:#32373c;stop-opacity:1"
         offset="0"
         id="stop3481" />
      <stop
         id="stop3483"
         offset="0.36804965"
         style="stop-color:#1a1a1a;stop-opacity:1" />
      <stop
         style="stop-color:#31363b;stop-opacity:1"
         offset="1"
         id="stop3485" />
    </linearGradient>
    <linearGradient
       inkscape:collect="always"
       xlink:href="#linearGradient20604"
       id="linearGradient20558"
       gradientUnits="userSpaceOnUse"
       x1="25.802212"
       y1="20.373846"
       x2="25.111048"
       y2="58.912758" />
    <linearGradient
       id="linearGradient20604">
      <stop
         id="stop20598"
         offset="0"
         style="stop-color:#3d3d3d;stop-opacity:1" />
      <stop
         style="stop-color:#000000;stop-opacity:1"
         offset="0.61772454"
         id="stop20600" />
      <stop
         id="stop20602"
         offset="1"
         style="stop-color:#3d3d3d;stop-opacity:1" />
    </linearGradient>
    <filter
       inkscape:collect="always"
       style="color-interpolation-filters:sRGB"
       id="filter20720"
       x="-0.017024755"
       y="-0.016457183"
       width="1.0340491"
       height="1.0329144">
      <feGaussianBlur
         inkscape:collect="always"
         stdDeviation="0.14745661"
         id="feGaussianBlur20722" />
    </filter>
    <linearGradient
       gradientTransform="translate(0.36067797,-0.13016949)"
       xlink:href="#linearGradient4555"
       id="linearGradient4557"
       x1="43.499737"
       y1="64.011795"
       x2="44.141731"
       y2="0.30621234"
       gradientUnits="userSpaceOnUse" />
    <linearGradient
       id="linearGradient4555">
      <stop
         style="stop-color:#141618;stop-opacity:1"
         offset="0"
         id="stop4551" />
      <stop
         id="stop4559"
         offset="0.51820582"
         style="stop-color:#686868;stop-opacity:1" />
      <stop
         style="stop-color:#31363b;stop-opacity:1"
         offset="1"
         id="stop4553" />
    </linearGradient>
    <filter
       style="color-interpolation-filters:sRGB"
       id="filter4601"
       x="-0.030244955"
       width="1.0604899"
       y="-0.030100647"
       height="1.0602013">
      <feGaussianBlur
         stdDeviation="0.014790289"
         id="feGaussianBlur4603" />
    </filter>
    <linearGradient
       inkscape:collect="always"
       xlink:href="#linearGradient917"
       id="linearGradient919"
       x1="7.400631"
       y1="41.743092"
       x2="33.063145"
       y2="7.1074457"
       gradientUnits="userSpaceOnUse"
       gradientTransform="matrix(0.65672235,0,0,0.65672235,0.25995334,0.217178)" />
    <linearGradient
       xlink:href="#a"
       id="g"
       gradientUnits="userSpaceOnUse"
       gradientTransform="matrix(1.125,0,0,1,-435.64,-499.8)"
       y1="543.79999"
       x2="0"
       y2="503.79999" />
    <linearGradient
       id="a"
       gradientTransform="matrix(0.58696,0,0,0.53846,-227.988,-270.353)"
       gradientUnits="userSpaceOnUse"
       x1="388.423"
       x2="388.423"
       y1="557.79797"
       y2="505.798">
      <stop
         offset="0"
         stop-color="#7f8c8d"
         id="stop9" />
      <stop
         offset="1"
         stop-color="#afb0b3"
         id="stop11" />
    </linearGradient>
    <linearGradient
       xlink:href="#b"
       id="h"
       gradientUnits="userSpaceOnUse"
       y1="38"
       x2="0"
       y2="5" />
    <linearGradient
       id="b"
       y1="38"
       y2="5"
       x2="0"
       gradientUnits="userSpaceOnUse"
       gradientTransform="translate(40)">
      <stop
         stop-color="#eef1f2"
         id="stop2-9" />
      <stop
         offset="1"
         stop-color="#f9fafb"
         id="stop4-4" />
    </linearGradient>
    <linearGradient
       id="i"
       gradientUnits="userSpaceOnUse"
       x1="10"
       x2="24"
       xlink:href="#c"
       y1="9"
       y2="23"
       gradientTransform="matrix(1.42857,0,0,1.42857,1.143,1.143)" />
    <linearGradient
       id="c">
      <stop
         offset="0"
         stop-color="#292c2f"
         id="stop14" />
      <stop
         offset="1"
         stop-opacity="0"
         id="stop16" />
    </linearGradient>
    <linearGradient
       xlink:href="#e"
       id="j"
       x1="-17"
       y1="32"
       x2="-17"
       y2="10"
       gradientUnits="userSpaceOnUse"
       gradientTransform="translate(40)" />
    <linearGradient
       gradientTransform="matrix(1.375,0,0,1.375,2,1.751)"
       id="e"
       gradientUnits="userSpaceOnUse"
       x1="16"
       x2="16"
       y1="22"
       y2="6">
      <stop
         offset="0"
         stop-color="#173f4f"
         id="stop20" />
      <stop
         offset="1"
         stop-color="#2f5361"
         id="stop22" />
    </linearGradient>
    <linearGradient
       xlink:href="#d"
       id="k"
       x1="-17"
       y1="31.948999"
       x2="-17"
       y2="10"
       gradientUnits="userSpaceOnUse"
       gradientTransform="translate(40)" />
    <linearGradient
       gradientTransform="matrix(1.375,0,0,1.375,2,1.751)"
       id="d"
       gradientUnits="userSpaceOnUse"
       x1="16"
       x2="16"
       y1="22"
       y2="6">
      <stop
         offset="0"
         stop-color="#35b9ab"
         id="stop25" />
      <stop
         offset="1"
         stop-color="#4ac0b4"
         id="stop27" />
    </linearGradient>
    <linearGradient
       xlink:href="#f"
       id="l"
       x1="-17"
       y1="32"
       x2="-17"
       y2="10"
       gradientUnits="userSpaceOnUse"
       gradientTransform="translate(40)" />
    <linearGradient
       gradientTransform="matrix(1.375,0,0,1.375,2,1.751)"
       id="f"
       gradientUnits="userSpaceOnUse"
       x1="16"
       x2="16"
       y1="22"
       y2="6">
      <stop
         offset="0"
         stop-color="#73ba25"
         id="stop30" />
      <stop
         offset="1"
         stop-color="#81c13b"
         id="stop32" />
    </linearGradient>
  </defs>
  <rect
     style="display:inline;fill:url(#linearGradient919);fill-opacity:1;fill-rule:evenodd;stroke:none;stroke-width:0.60932;stroke-linejoin:round;stroke-miterlimit:7.8"
     id="rect1192"
     width="27.637899"
     height="28.049995"
     x="2.3371074"
     y="2.1994877"
     ry="0"
     inkscape:label="arriere" />
  <g
     id="g871"
     transform="matrix(0.66757928,0,0,0.66757928,1.7248626,-0.53274947)">
    <path
       d="M 16.838,4 A 10.809,10.809 0 0 0 9.168,7.168 10.809,10.809 0 0 0 6,14.838 V 44 H 42 V 29.773 H 41.996 V 14.838 A 10.81,10.81 0 0 0 38.828,7.168 10.809,10.809 0 0 0 31.158,4 Z"
       id="path40"
       style="fill:url(#g)"
       inkscape:connector-curvature="0" />
    <path
       d="M 6,39.9 H 42 V 44 H 6 Z"
       id="path42"
       inkscape:connector-curvature="0"
       style="fill:#626b6c" />
    <path
       d="m 6,43 h 36 v 1 H 6 Z"
       id="path44"
       inkscape:connector-curvature="0"
       style="fill:#737b81" />
    <g
       id="g48"
       style="fill:#292c2e;stroke-width:0.1">
      <path
         d="m 16,41 h 12 v 3 H 16 Z m 16,0 h 6 v 3 h -6 z"
         id="path46"
         inkscape:connector-curvature="0" />
    </g>
    <path
       d="M 17.367,6.025 A 9.34,9.34 0 0 0 8,15.392 v 4.659 c 1.698,0.243 3,1.684 3,3.451 a 3.48,3.48 0 0 1 -3,3.45 V 32 l 1.459,1.486 0.012,0.014 c 0.02,0.024 0.048,0.044 0.07,0.068 L 13.895,38 H 23.957 L 24,38.002 h 4.088 V 38 H 34 l 3.719,-3.719 c 0.292,-0.245 0.567,-0.502 0.81,-0.781 0.037,-0.043 0.068,-0.09 0.104,-0.133 L 40,32 v -5.049 a 3.48,3.48 0 0 1 -3,-3.449 3.483,3.483 0 0 1 3,-3.451 V 15.393 A 9.345,9.345 0 0 0 34.285,6.76 9.376,9.376 0 0 0 30.738,6.031 C 30.729,6.03 30.721,6.025 30.711,6.025 Z"
       id="path50"
       style="fill:url(#h)"
       inkscape:connector-curvature="0" />
    <path
       d="m 18,42 v 1 h 8 v -1 z m 15,0 v 1 h 3 v 1 h 1 v -2 z"
       id="path52"
       inkscape:connector-curvature="0"
       style="fill:#f6b44d" />
    <g
       id="g56"
       style="fill:#202324">
      <path
         d="m 16,43 h 12 v 1 H 16 Z m 16,0 h 6 v 1 h -6 z"
         id="path54"
         inkscape:connector-curvature="0" />
    </g>
    <path
       d="m 24,10 a 11,11 0 0 0 -8.43,3.936 L 15.428,14 15.363,14.209 A 11,11 0 0 0 13,21 a 11,11 0 0 0 2.482,6.953 l 0.43,1.277 10.483,10.485 H 41.143 V 22.109 L 32,13 31.229,12.719 A 11,11 0 0 0 24,10 Z"
       id="path58"
       style="opacity:0.2;fill:url(#i)"
       inkscape:connector-curvature="0" />
    <path
       d="M 23,31.95 V 21.644 l -0.121,-0.21 -8.828,-5.095 A 11,11 0 0 0 13,21 11,11 0 0 0 23,31.95 Z"
       id="path60"
       style="fill:url(#j);paint-order:stroke fill markers"
       inkscape:connector-curvature="0" />
    <path
       d="M 33.95,16.338 25.121,21.436 25,21.645 v 10.3 A 11,11 0 0 0 35,21 11,11 0 0 0 33.95,16.338 Z"
       id="path62"
       style="fill:url(#k);paint-order:stroke fill markers"
       inkscape:connector-curvature="0" />
    <path
       d="m 24,10 a 11,11 0 0 0 -8.943,4.611 L 24,19.773 32.94,14.613 A 11,11 0 0 0 24,10 Z"
       id="path64"
       style="fill:url(#l);paint-order:stroke fill markers"
       inkscape:connector-curvature="0" />
  </g>
  <path
     style="display:inline;mix-blend-mode:normal;fill:url(#linearGradient3403);fill-opacity:1;stroke:url(#linearGradient20558);stroke-width:1.16242;stroke-linecap:butt;stroke-linejoin:round;stroke-miterlimit:4;stroke-dasharray:none;stroke-opacity:1;filter:url(#filter20720)"
     d="M 4.7043071,3.9814882 4.6913695,60.80196 H 58.59546 l 1.022155,-2.866369 c 0,0 -23.87537,0.766388 -32.844441,-4.140386 C 16.257548,48.042344 11.401114,4.0978197 11.401114,4.0978197 Z"
     id="path1686"
     sodipodi:nodetypes="ccccscc"
     transform="matrix(0.4937762,0,0,0.4937762,0.32543163,0.23352143)"
     inkscape:label="folder" />
  <rect
     style="display:inline;fill:none;fill-opacity:1;stroke:url(#linearGradient4557);stroke-width:3.71366;stroke-linejoin:round;stroke-miterlimit:7.8;stroke-dasharray:none;stroke-opacity:0.995146;filter:url(#filter4601)"
     id="rect4539"
     width="62.566689"
     height="62.866646"
     x="1.0323594"
     y="0.59551275"
     ry="6.2447233"
     rx="5.8029528"
     transform="matrix(0.46256103,0,0,0.46161822,1.1550559,1.2312929)"
     inkscape:label="contour" />
</svg>
